;FLAVOR:RepRap
;TIME:3274
;Filament used: 2.69232m
;Layer height: 0.3
;MINX:31.903
;MINY:126.311
;MINZ:0.3
;MAXX:99.707
;MAXY:186.532
;MAXZ:13.2
;POSTPROCESSED
;Generated with Cura_SteamEngine 4.10.0
T0
M190 S60
M104 S220
M109 S220
M82 ;absolute extrusion mode
G28 ;Home
G1 Z15.0 F6000 ;Move the platform down 15mm
;Prime the extruder
G92 E0; set extruder zero
G1 F200 E3; 3mm slowly forward
G92 E0; Set extruder zero
M83 ;relative extrusion mode
G1 F1500 E-6.5
;LAYER_COUNT:44
;LAYER:0
M107
;MESH:FRONT_COVER.3MF
G0 F3600 X37.53 Y150.507 Z0.3
;TYPE:WALL-INNER
G1 F1500 E6.5
G1 F750 X37.53 Y177.372 E2.18134
G1 X54.667 Y177.372 E1.39146
G1 X54.667 Y150.507 E2.18134
G1 X37.53 Y150.507 E1.39146
G0 F3600 X37.46 Y150.437
G0 X37.502 Y177.4
G0 X57.523 Y183.498
G0 X57.593 Y183.428
G1 F750 X59.593 Y183.428 E0.16239
G1 X59.593 Y185.832 E0.1952
G1 X32.603 Y185.832 E2.19149
G1 X32.603 Y183.428 E0.1952
G1 X34.603 Y183.428 E0.16239
G1 X34.603 Y132.438 E4.1402
G1 X38.628 Y132.438 E0.32682
G1 X38.628 Y147.781 E1.24579
G1 X40.978 Y147.781 E0.19081
G1 X40.978 Y132.438 E1.24579
G1 X51.218 Y132.438 E0.83145
G1 X51.218 Y147.781 E1.24579
G1 X53.568 Y147.781 E0.19081
G1 X53.568 Y132.438 E1.24579
G1 X57.593 Y132.438 E0.32682
G1 X57.593 Y183.428 E4.1402
G0 F3600 X58.293 Y182.728
;TYPE:WALL-OUTER
G1 F750 X60.293 Y182.728 E0.16239
G1 X60.293 Y186.532 E0.30887
G1 X31.903 Y186.532 E2.30516
G1 X31.903 Y182.728 E0.30887
G1 X33.903 Y182.728 E0.16239
G1 X33.903 Y131.738 E4.1402
G1 X39.328 Y131.738 E0.44049
G1 X39.328 Y147.081 E1.24579
G1 X40.278 Y147.081 E0.07714
G1 X40.278 Y131.738 E1.24579
G1 X51.918 Y131.738 E0.94512
G1 X51.918 Y147.081 E1.24579
G1 X52.868 Y147.081 E0.07714
G1 X52.868 Y131.738 E1.24579
G1 X58.293 Y131.738 E0.44049
G1 X58.293 Y182.728 E4.1402
G0 F3600 X58.493 Y182.728
G0 X58.493 Y183.528
G0 X54.695 Y150.479
G0 X38.23 Y150.407
G0 X38.23 Y151.207
G1 F750 X38.23 Y176.672 E2.06766
G1 X53.967 Y176.672 E1.27779
G1 X53.967 Y151.207 E2.06766
G1 X38.23 Y151.207 E1.27779
G0 F3600 X38.23 Y151.407
G0 X37.43 Y151.407
G0 X36.84 Y149.817
;TYPE:SKIN
G1 F750 X36.84 Y178.062 E2.29339
G1 X55.357 Y178.062 E1.50351
G1 X55.357 Y149.817 E2.29339
G1 X36.84 Y149.817 E1.50351
G0 F3600 X37.938 Y148.471
G1 F750 X41.668 Y148.471 E0.30286
G1 X41.668 Y133.128 E1.24579
G1 X50.528 Y133.128 E0.7194
G1 X50.528 Y148.471 E1.24579
G1 X54.258 Y148.471 E0.30286
G1 X54.258 Y133.128 E1.24579
G1 X56.903 Y133.128 E0.21476
G1 X56.903 Y184.118 E4.1402
G1 X58.903 Y184.118 E0.16239
G1 X58.903 Y185.142 E0.08315
G1 X33.293 Y185.142 E2.07944
G1 X33.293 Y184.118 E0.08315
G1 X35.293 Y184.118 E0.16239
G1 X35.293 Y133.128 E4.1402
G1 X37.938 Y133.128 E0.21476
G1 X37.938 Y148.471 E1.24579
G0 F3600 X53.596 Y147.809
G0 X56.588 Y133.804
G1 F750 X56.226 Y133.442 E0.04157
G0 F3600 X55.236 Y133.442
G1 F750 X56.588 Y134.794 E0.15525
G0 F3600 X56.588 Y135.784
G1 F750 X54.573 Y133.769 E0.23138
G0 F3600 X54.573 Y134.758
G1 F750 X56.588 Y136.774 E0.23144
G0 F3600 X56.588 Y137.764
G1 F750 X54.573 Y135.748 E0.23144
G0 F3600 X54.573 Y136.738
G1 F750 X56.588 Y138.754 E0.23144
G0 F3600 X56.588 Y139.744
G1 F750 X54.573 Y137.728 E0.23144
G0 F3600 X54.573 Y138.718
G1 F750 X56.588 Y140.734 E0.23144
G0 F3600 X56.588 Y141.723
G1 F750 X54.573 Y139.708 E0.23138
G0 F3600 X54.573 Y140.698
G1 F750 X56.588 Y142.713 E0.23138
G0 F3600 X56.588 Y143.703
G1 F750 X54.573 Y141.688 E0.23138
G0 F3600 X54.573 Y142.678
G1 F750 X56.588 Y144.693 E0.23138
G0 F3600 X56.588 Y145.683
G1 F750 X54.573 Y143.668 E0.23138
G0 F3600 X54.573 Y144.658
G1 F750 X56.588 Y146.673 E0.23138
G0 F3600 X56.588 Y147.663
G1 F750 X54.573 Y145.648 E0.23138
G0 F3600 X54.573 Y146.638
G1 F750 X56.588 Y148.653 E0.23138
G0 F3600 X56.588 Y149.643
G1 F750 X54.573 Y147.628 E0.23138
G0 F3600 X54.573 Y148.618
G1 F750 X55.455 Y149.5 E0.10128
G0 F3600 X55.671 Y149.717
G1 F750 X56.588 Y150.633 E0.10524
G0 F3600 X55.671 Y150.707
G1 F750 X56.588 Y151.623 E0.10524
G0 F3600 X55.671 Y151.697
G1 F750 X56.588 Y152.613 E0.10524
G0 F3600 X55.671 Y152.686
G1 F750 X56.588 Y153.603 E0.1053
G0 F3600 X55.671 Y153.676
G1 F750 X56.588 Y154.593 E0.1053
G0 F3600 X55.671 Y154.666
G1 F750 X56.588 Y155.583 E0.1053
G0 F3600 X55.671 Y155.656
G1 F750 X56.588 Y156.573 E0.1053
G0 F3600 X55.671 Y156.646
G1 F750 X56.588 Y157.563 E0.1053
G0 F3600 X55.671 Y157.636
G1 F750 X56.588 Y158.553 E0.1053
G0 F3600 X55.671 Y158.626
G1 F750 X56.588 Y159.543 E0.1053
G0 F3600 X55.671 Y159.616
G1 F750 X56.588 Y160.533 E0.1053
G0 F3600 X55.671 Y160.606
G1 F750 X56.588 Y161.522 E0.10524
G0 F3600 X55.671 Y161.596
G1 F750 X56.588 Y162.512 E0.10524
G0 F3600 X55.671 Y162.586
G1 F750 X56.588 Y163.502 E0.10524
G0 F3600 X55.671 Y163.576
G1 F750 X56.588 Y164.492 E0.10524
G0 F3600 X55.671 Y164.566
G1 F750 X56.588 Y165.482 E0.10524
G0 F3600 X55.671 Y165.556
G1 F750 X56.588 Y166.472 E0.10524
G0 F3600 X55.671 Y166.546
G1 F750 X56.588 Y167.462 E0.10524
G0 F3600 X55.671 Y167.536
G1 F750 X56.588 Y168.452 E0.10524
G0 F3600 X55.671 Y168.526
G1 F750 X56.588 Y169.442 E0.10524
G0 F3600 X55.671 Y169.516
G1 F750 X56.588 Y170.432 E0.10524
G0 F3600 X55.671 Y170.506
G1 F750 X56.588 Y171.422 E0.10524
G0 F3600 X55.671 Y171.496
G1 F750 X56.588 Y172.412 E0.10524
G0 F3600 X55.671 Y172.485
G1 F750 X56.588 Y173.402 E0.1053
G0 F3600 X55.671 Y173.475
G1 F750 X56.588 Y174.392 E0.1053
G0 F3600 X55.671 Y174.465
G1 F750 X56.588 Y175.382 E0.1053
G0 F3600 X55.671 Y175.455
G1 F750 X56.588 Y176.372 E0.1053
G0 F3600 X55.671 Y176.445
G1 F750 X56.588 Y177.362 E0.1053
G0 F3600 X55.671 Y177.435
G1 F750 X56.588 Y178.352 E0.1053
G0 F3600 X55.622 Y178.376
G1 F750 X56.588 Y179.342 E0.11092
G0 F3600 X56.588 Y180.332
G1 F750 X54.632 Y178.376 E0.22461
G0 F3600 X53.642 Y178.376
G1 F750 X56.588 Y181.321 E0.33823
G0 F3600 X56.588 Y182.311
G1 F750 X52.652 Y178.376 E0.45191
G0 F3600 X51.662 Y178.376
G1 F750 X56.588 Y183.301 E0.56559
G0 F3600 X56.588 Y184.291
G1 F750 X50.672 Y178.376 E0.67927
G0 F3600 X49.682 Y178.376
G1 F750 X56.132 Y184.825 E0.74059
G0 F3600 X56.729 Y184.432
G1 F750 X57.122 Y184.825 E0.04513
G0 F3600 X57.719 Y184.432
G1 F750 X58.112 Y184.825 E0.04513
G0 F3600 X55.142 Y184.825
G1 F750 X48.692 Y178.376 E0.74059
G0 F3600 X47.702 Y178.376
G1 F750 X54.152 Y184.825 E0.74059
G0 F3600 X53.162 Y184.825
G1 F750 X46.712 Y178.376 E0.74059
G0 F3600 X45.722 Y178.376
G1 F750 X52.172 Y184.825 E0.74059
G0 F3600 X51.182 Y184.825
G1 F750 X44.732 Y178.376 E0.74059
G0 F3600 X43.743 Y178.376
G1 F750 X50.192 Y184.825 E0.74053
G0 F3600 X49.202 Y184.825
G1 F750 X42.753 Y178.376 E0.74053
G0 F3600 X41.763 Y178.376
G1 F750 X48.212 Y184.825 E0.74053
G0 F3600 X47.222 Y184.825
G1 F750 X40.773 Y178.376 E0.74053
G0 F3600 X39.783 Y178.376
G1 F750 X46.232 Y184.825 E0.74053
G0 F3600 X45.242 Y184.825
G1 F750 X38.793 Y178.376 E0.74053
G0 F3600 X37.803 Y178.376
G1 F750 X44.252 Y184.825 E0.74053
G0 F3600 X43.262 Y184.825
G1 F750 X36.813 Y178.376 E0.74053
G0 F3600 X36.524 Y178.087
G1 F750 X35.607 Y177.17 E0.1053
G0 F3600 X36.524 Y177.097
G1 F750 X35.607 Y176.18 E0.1053
G0 F3600 X36.524 Y176.107
G1 F750 X35.607 Y175.19 E0.1053
G0 F3600 X36.524 Y175.117
G1 F750 X35.607 Y174.2 E0.1053
G0 F3600 X36.524 Y174.127
G1 F750 X35.607 Y173.21 E0.1053
G0 F3600 X36.524 Y173.137
G1 F750 X35.607 Y172.22 E0.1053
G0 F3600 X36.524 Y172.147
G1 F750 X35.607 Y171.23 E0.1053
G0 F3600 X36.524 Y171.158
G1 F750 X35.607 Y170.24 E0.10536
G0 F3600 X36.524 Y170.168
G1 F750 X35.607 Y169.25 E0.10536
G0 F3600 X36.524 Y169.178
G1 F750 X35.607 Y168.261 E0.1053
G0 F3600 X36.524 Y168.188
G1 F750 X35.607 Y167.271 E0.1053
G0 F3600 X36.524 Y167.198
G1 F750 X35.607 Y166.281 E0.1053
G0 F3600 X36.524 Y166.208
G1 F750 X35.607 Y165.291 E0.1053
G0 F3600 X36.524 Y165.218
G1 F750 X35.607 Y164.301 E0.1053
G0 F3600 X36.524 Y164.228
G1 F750 X35.607 Y163.311 E0.1053
G0 F3600 X36.524 Y163.238
G1 F750 X35.607 Y162.321 E0.1053
G0 F3600 X36.524 Y162.248
G1 F750 X35.607 Y161.331 E0.1053
G0 F3600 X36.524 Y161.258
G1 F750 X35.607 Y160.341 E0.1053
G0 F3600 X36.524 Y160.268
G1 F750 X35.607 Y159.351 E0.1053
G0 F3600 X36.524 Y159.278
G1 F750 X35.607 Y158.361 E0.1053
G0 F3600 X36.524 Y158.288
G1 F750 X35.607 Y157.371 E0.1053
G0 F3600 X36.524 Y157.298
G1 F750 X35.607 Y156.381 E0.1053
G0 F3600 X36.524 Y156.308
G1 F750 X35.607 Y155.391 E0.1053
G0 F3600 X36.524 Y155.318
G1 F750 X35.607 Y154.401 E0.1053
G0 F3600 X36.524 Y154.328
G1 F750 X35.607 Y153.411 E0.1053
G0 F3600 X36.524 Y153.338
G1 F750 X35.607 Y152.421 E0.1053
G0 F3600 X36.524 Y152.348
G1 F750 X35.607 Y151.431 E0.1053
G0 F3600 X36.524 Y151.359
G1 F750 X35.607 Y150.441 E0.10536
G0 F3600 X36.524 Y150.369
G1 F750 X35.607 Y149.451 E0.10536
G0 F3600 X35.607 Y148.462
G1 F750 X36.646 Y149.5 E0.11925
G0 F3600 X37.636 Y149.5
G1 F750 X35.607 Y147.472 E0.23293
G0 F3600 X35.607 Y146.482
G1 F750 X37.623 Y148.497 E0.23144
G0 F3600 X37.911 Y148.785
G1 F750 X38.626 Y149.5 E0.0821
G0 F3600 X38.901 Y148.785
G1 F750 X39.616 Y149.5 E0.0821
G0 F3600 X39.891 Y148.785
G1 F750 X40.606 Y149.5 E0.0821
G0 F3600 X40.881 Y148.785
G1 F750 X41.596 Y149.5 E0.0821
G0 F3600 X41.871 Y148.785
G1 F750 X42.586 Y149.5 E0.0821
G0 F3600 X43.576 Y149.5
G1 F750 X41.983 Y147.907 E0.18292
G0 F3600 X41.983 Y146.917
G1 F750 X44.566 Y149.5 E0.2966
G0 F3600 X45.556 Y149.5
G1 F750 X41.983 Y145.927 E0.41028
G0 F3600 X41.983 Y144.937
G1 F750 X46.546 Y149.5 E0.52396
G0 F3600 X47.535 Y149.5
G1 F750 X41.983 Y143.947 E0.63759
G0 F3600 X41.983 Y142.957
G1 F750 X48.525 Y149.5 E0.75127
G0 F3600 X49.515 Y149.5
G1 F750 X41.983 Y141.967 E0.86495
G0 F3600 X41.983 Y140.978
G1 F750 X50.505 Y149.5 E0.97857
G0 F3600 X50.78 Y148.785
G1 F750 X51.495 Y149.5 E0.0821
G0 F3600 X51.77 Y148.785
G1 F750 X52.485 Y149.5 E0.0821
G0 F3600 X52.76 Y148.785
G1 F750 X53.475 Y149.5 E0.0821
G0 F3600 X53.75 Y148.785
G1 F750 X54.465 Y149.5 E0.0821
G0 F3600 X50.213 Y148.218
G1 F750 X41.983 Y139.988 E0.94504
G0 F3600 X41.983 Y138.998
G1 F750 X50.213 Y147.228 E0.94504
G0 F3600 X50.213 Y146.238
G1 F750 X41.983 Y138.008 E0.94504
G0 F3600 X41.983 Y137.018
G1 F750 X50.213 Y145.248 E0.94504
G0 F3600 X50.213 Y144.258
G1 F750 X41.983 Y136.028 E0.94504
G0 F3600 X41.983 Y135.038
G1 F750 X50.213 Y143.268 E0.94504
G0 F3600 X50.213 Y142.278
G1 F750 X41.983 Y134.048 E0.94504
G0 F3600 X42.367 Y133.442
G1 F750 X50.213 Y141.288 E0.90095
G0 F3600 X50.213 Y140.298
G1 F750 X43.356 Y133.442 E0.78732
G0 F3600 X44.346 Y133.442
G1 F750 X50.213 Y139.308 E0.67364
G0 F3600 X50.213 Y138.318
G1 F750 X45.336 Y133.442 E0.55996
G0 F3600 X46.326 Y133.442
G1 F750 X50.213 Y137.328 E0.44628
G0 F3600 X50.213 Y136.338
G1 F750 X47.316 Y133.442 E0.3326
G0 F3600 X48.306 Y133.442
G1 F750 X50.213 Y135.348 E0.21892
G0 F3600 X50.213 Y134.358
G1 F750 X49.296 Y133.442 E0.10524
G0 F3600 X41.006 Y147.809
G0 X38.6 Y147.809
G0 X37.623 Y133.648
G1 F750 X37.417 Y133.442 E0.02365
G0 F3600 X36.427 Y133.442
G1 F750 X37.623 Y134.638 E0.13734
G0 F3600 X37.623 Y135.628
G1 F750 X35.607 Y133.612 E0.2315
G0 F3600 X35.607 Y134.602
G1 F750 X37.623 Y136.617 E0.23144
G0 F3600 X37.623 Y137.607
G1 F750 X35.607 Y135.592 E0.23144
G0 F3600 X35.607 Y136.582
G1 F750 X37.623 Y138.597 E0.23144
G0 F3600 X37.623 Y139.587
G1 F750 X35.607 Y137.572 E0.23144
G0 F3600 X35.607 Y138.562
G1 F750 X37.623 Y140.577 E0.23144
G0 F3600 X37.623 Y141.567
G1 F750 X35.607 Y139.552 E0.23144
G0 F3600 X35.607 Y140.542
G1 F750 X37.623 Y142.557 E0.23144
G0 F3600 X37.623 Y143.547
G1 F750 X35.607 Y141.532 E0.23144
G0 F3600 X35.607 Y142.522
G1 F750 X37.623 Y144.537 E0.23144
G0 F3600 X37.623 Y145.527
G1 F750 X35.607 Y143.512 E0.23144
G0 F3600 X35.607 Y144.502
G1 F750 X37.623 Y146.517 E0.23144
G0 F3600 X37.623 Y147.507
G1 F750 X35.607 Y145.492 E0.23144
G1 X35.484 Y145.369
G0 F3600 X35.607 Y178.16
G1 F750 X42.272 Y184.825 E0.76533
G0 F3600 X41.283 Y184.825
G1 F750 X35.607 Y179.15 E0.65171
G0 F3600 X35.607 Y180.14
G1 F750 X40.293 Y184.825 E0.53803
G0 F3600 X39.303 Y184.825
G1 F750 X35.607 Y181.13 E0.42435
G0 F3600 X35.607 Y182.12
G1 F750 X38.313 Y184.825 E0.31067
G0 F3600 X37.323 Y184.825
G1 F750 X35.607 Y183.11 E0.19699
G0 F3600 X35.607 Y184.1
G1 F750 X36.333 Y184.825 E0.08331
G0 F3600 X35.343 Y184.825
G1 F750 X34.95 Y184.432 E0.04513
G0 F3600 X34.353 Y184.825
G1 F750 X33.96 Y184.432 E0.04513
G1 F1500 E-6.5
;MESH:back_cover.3MF
G0 F3600 X54.695 Y177.4
G0 X57.573 Y169.26
G0 X59.308 Y169.26
G0 X71.952 Y169.261
G0 X73.667 Y169.26
G0 X73.999 Y169.33
;TYPE:WALL-INNER
G1 F1500 E6.5
G1 F750 X73.999 Y173.917 E0.37245
G1 X97.099 Y173.917 E1.87563
G1 X97.099 Y169.331 E0.37237
G1 X73.999 Y169.33 E1.87563
G0 F3600 X73.929 Y169.26
G0 X73.971 Y173.945
G0 X97.008 Y174.717
G0 X97.008 Y174.817
G1 F750 X73.667 Y174.817 E1.8952
G1 X73.667 Y173.918 E0.073
G1 X73.667 Y169.331 E0.17669
G1 X73.667 Y138.403 E2.51124
G1 X73.667 Y133.818 E0.37229
G1 X73.666 Y133.267 E0.04474
G1 X73.666 Y132.917 E0.02842
G1 X74.016 Y132.917 E0.01839
G1 X97.357 Y132.917 E1.8952
G1 X97.357 Y133.817 E0.07308
G1 X97.357 Y138.404 E0.37245
G1 X97.357 Y169.331 E2.51116
G1 X97.357 Y173.916 E0.13719
G1 X97.358 Y174.467 E0.04474
G1 X97.358 Y174.817 E0.02842
G1 X97.008 Y174.817 E0.01839
G0 F3600 X97.008 Y174.717
G0 X97.127 Y169.303
G0 X73.929 Y138.473
G0 X73.999 Y138.403
G1 F750 X97.099 Y138.404 E1.87563
G1 X97.099 Y133.817 E0.13727
G1 X73.999 Y133.817 E1.87563
G1 X73.999 Y138.403 E0.17663
G0 F3600 X74.699 Y137.703
;TYPE:WALL-OUTER
G1 F750 X96.049 Y137.704 E1.73354
G1 X96.399 Y137.704 E0.02842
G1 X96.399 Y137.354 E0.01839
G1 X96.399 Y134.517 E0.23035
G1 X74.699 Y134.517 E1.76196
G1 X74.699 Y137.703 E0.25869
G0 F3600 X74.899 Y137.703
G0 X74.898 Y138.503
G0 X74.7 Y169.231
G0 X74.699 Y170.03
G1 F750 X74.699 Y170.38 E0.02842
G1 X74.699 Y173.217 E0.23035
G1 X96.399 Y173.217 E1.76196
G1 X96.399 Y170.031 E0.25869
G1 X75.049 Y170.03 E1.73354
G1 X74.699 Y170.03 E0.01839
G0 F3600 X74.699 Y170.23
G0 X73.899 Y170.23
G0 X73.971 Y173.945
G0 X97.288 Y174.747
G0 X97.708 Y175.517
G1 F750 X72.967 Y175.517 E2.00888
G1 X72.966 Y132.567 E3.48738
G1 X72.966 Y132.217 E0.02842
G1 X73.316 Y132.217 E0.01839
G1 X98.057 Y132.217 E2.00888
G1 X98.058 Y175.167 E3.48738
G1 X98.058 Y175.517 E0.02842
G1 X97.708 Y175.517 E0.01839
G0 F3600 X97.508 Y175.517
G0 X97.288 Y174.747
G0 X96.295 Y174.501
;TYPE:SKIN
G1 F750 X96.025 Y174.231 E0.031
G0 F3600 X95.305 Y174.501
G1 F750 X95.035 Y174.231 E0.031
G0 F3600 X94.315 Y174.501
G1 F750 X94.045 Y174.231 E0.031
G0 F3600 X93.325 Y174.501
G1 F750 X93.055 Y174.231 E0.031
G0 F3600 X92.335 Y174.501
G1 F750 X92.065 Y174.231 E0.031
G0 F3600 X91.345 Y174.501
G1 F750 X91.075 Y174.231 E0.031
G0 F3600 X90.355 Y174.501
G1 F750 X90.085 Y174.231 E0.031
G0 F3600 X89.365 Y174.501
G1 F750 X89.095 Y174.231 E0.031
G0 F3600 X88.375 Y174.501
G1 F750 X88.105 Y174.231 E0.031
G0 F3600 X87.385 Y174.501
G1 F750 X87.115 Y174.231 E0.031
G0 F3600 X86.395 Y174.501
G1 F750 X86.125 Y174.231 E0.031
G0 F3600 X85.405 Y174.501
G1 F750 X85.135 Y174.231 E0.031
G0 F3600 X84.415 Y174.501
G1 F750 X84.145 Y174.231 E0.031
G0 F3600 X83.425 Y174.501
G1 F750 X83.155 Y174.231 E0.031
G0 F3600 X82.435 Y174.501
G1 F750 X82.165 Y174.231 E0.031
G0 F3600 X81.445 Y174.501
G1 F750 X81.175 Y174.231 E0.031
G0 F3600 X80.456 Y174.501
G1 F750 X80.185 Y174.231 E0.03106
G0 F3600 X79.466 Y174.501
G1 F750 X79.195 Y174.231 E0.03106
G0 F3600 X78.476 Y174.501
G1 F750 X78.206 Y174.231 E0.031
G0 F3600 X77.486 Y174.501
G1 F750 X77.216 Y174.231 E0.031
G0 F3600 X76.496 Y174.501
G1 F750 X76.226 Y174.231 E0.031
G0 F3600 X75.506 Y174.501
G1 F750 X75.236 Y174.231 E0.031
G0 F3600 X74.516 Y174.501
G1 F750 X74.246 Y174.231 E0.031
G0 F3600 X73.971 Y169.302
G0 X74.357 Y168.64
G1 F750 X74.356 Y139.093 E2.39911
G1 X96.667 Y139.094 E1.81157
G1 X96.668 Y168.641 E2.39911
G1 X74.357 Y168.64 E1.81157
G0 F3600 X75.268 Y168.323
G1 F750 X74.671 Y167.726 E0.06855
G0 F3600 X74.671 Y166.736
G1 F750 X76.258 Y168.323 E0.18223
G0 F3600 X77.248 Y168.323
G1 F750 X74.671 Y165.746 E0.29591
G0 F3600 X74.671 Y164.756
G1 F750 X78.238 Y168.323 E0.40959
G0 F3600 X79.228 Y168.323
G1 F750 X74.671 Y163.766 E0.52328
G0 F3600 X74.671 Y162.776
G1 F750 X80.218 Y168.323 E0.63696
G0 F3600 X81.208 Y168.323
G1 F750 X74.671 Y161.786 E0.75064
G0 F3600 X74.671 Y160.796
G1 F750 X82.198 Y168.323 E0.86432
G0 F3600 X83.188 Y168.323
