;FLAVOR:RepRap
;TIME:18118
;Filament used: 2.93054m
;Layer height: 0.2
;MINX:28.778
;MINY:112.408
;MINZ:0.3
;MAXX:111.189
;MAXY:187.702
;MAXZ:13.1
;POSTPROCESSED
;Generated with Cura_SteamEngine 4.10.0
T0
M190 S60
M104 S220
M109 S220
M82 ;absolute extrusion mode
G28 ;Home
G1 Z15.0 F6000 ;Move the platform down 15mm
;Prime the extruder
G92 E0; set extruder zero
G1 F200 E3; 3mm slowly forward
G92 E0; Set extruder zero
M83 ;relative extrusion mode
G1 F1500 E-6.5
;LAYER_COUNT:65
;LAYER:0
M107
G0 F3600 X37.63 Y113.005 Z0.3
;TYPE:SKIRT
G1 F1500 E6.5
G1 F150 X38.48 Y112.741 E0.06194
G1 X39.35 Y112.554 E0.06193
G1 X40.233 Y112.447 E0.0619
G1 X40.852 Y112.419 E0.04312
G1 X41.715 Y112.408 E0.06007
G1 X64.761 Y112.408 E1.60393
G1 X65.623 Y112.42 E0.06
G1 X66.511 Y112.474 E0.06192
G1 X67.001 Y112.538 E0.03439
G1 X67.879 Y112.676 E0.06186
G1 X70.477 Y113.046 E0.18264
G1 X72.977 Y113.33 E0.17511
G1 X75.533 Y113.549 E0.17854
G1 X78.076 Y113.694 E0.17727
G1 X80.648 Y113.768 E0.17908
G1 X81.993 Y113.777 E0.09361
G1 X94.22 Y113.777 E0.85096
G1 X96.827 Y113.74 E0.18146
G1 X98.196 Y113.682 E0.09536
G1 X99.322 Y113.649 E0.0784
G1 X99.602 Y113.645 E0.01949
G1 X100.758 Y113.645 E0.08045
G1 X101.427 Y113.655 E0.04657
G1 X102.315 Y113.708 E0.06191
G1 X103.195 Y113.841 E0.06194
G1 X104.059 Y114.052 E0.0619
G1 X104.901 Y114.34 E0.06193
G1 X105.714 Y114.703 E0.06197
G1 X106.49 Y115.137 E0.06188
G1 X107.225 Y115.638 E0.06191
G1 X107.912 Y116.204 E0.06195
G1 X108.545 Y116.829 E0.06191
G1 X109.119 Y117.509 E0.06193
G1 X109.63 Y118.237 E0.0619
G1 X110.074 Y119.008 E0.06192
G1 X110.446 Y119.816 E0.06191
G1 X110.745 Y120.654 E0.06192
G1 X110.967 Y121.516 E0.06195
G1 X111.111 Y122.394 E0.06192
G1 X111.175 Y123.261 E0.0605
G1 X111.189 Y123.892 E0.04393
G1 X111.188 Y167.155 E3.01097
G1 X111.178 Y167.882 E0.0506
G1 X111.126 Y168.77 E0.06191
G1 X110.994 Y169.65 E0.06193
G1 X110.784 Y170.515 E0.06195
G1 X110.497 Y171.357 E0.06191
G1 X110.136 Y172.17 E0.06191
G1 X109.703 Y172.947 E0.06191
G1 X109.202 Y173.683 E0.06196
G1 X108.637 Y174.37 E0.06191
G1 X108.012 Y175.004 E0.06196
G1 X107.333 Y175.579 E0.06192
G1 X106.606 Y176.091 E0.06189
G1 X105.835 Y176.535 E0.06192
G1 X105.028 Y176.909 E0.0619
G1 X104.19 Y177.208 E0.06192
G1 X103.329 Y177.432 E0.06192
G1 X102.727 Y177.539 E0.04255
G1 X102.402 Y177.586 E0.02285
G1 X99.98 Y177.898 E0.16996
G1 X97.514 Y178.288 E0.17376
G1 X94.951 Y178.769 E0.18149
G1 X92.496 Y179.301 E0.17483
G1 X90.026 Y179.91 E0.17705
G1 X87.566 Y180.591 E0.17765
G1 X85.141 Y181.336 E0.17656
G1 X82.698 Y182.164 E0.17953
G1 X80.304 Y183.051 E0.17768
G1 X77.972 Y183.991 E0.17499
G1 X75.612 Y185.021 E0.17921
G1 X73.317 Y186.1 E0.1765
G1 X72.093 Y186.695 E0.09472
G1 X71.276 Y187.048 E0.06194
G1 X70.431 Y187.325 E0.06189
G1 X69.904 Y187.457 E0.03781
G1 X69.027 Y187.611 E0.06197
G1 X68.036 Y187.689 E0.06918
G1 X67.438 Y187.702 E0.04163
G1 X39.257 Y187.701 E1.96131
G1 X38.559 Y187.692 E0.04858
G1 X37.671 Y187.641 E0.0619
G1 X36.791 Y187.51 E0.06192
G1 X35.926 Y187.3 E0.06195
G1 X35.084 Y187.014 E0.06189
G1 X34.271 Y186.653 E0.06191
G1 X33.493 Y186.221 E0.06193
G1 X32.757 Y185.721 E0.06193
G1 X32.07 Y185.156 E0.06191
G1 X31.435 Y184.532 E0.06196
G1 X30.859 Y183.854 E0.06192
G1 X30.347 Y183.127 E0.06189
G1 X29.902 Y182.357 E0.0619
G1 X29.527 Y181.549 E0.062
G1 X29.227 Y180.712 E0.06188
G1 X29.003 Y179.851 E0.06192
G1 X28.858 Y178.973 E0.06193
G1 X28.791 Y178.06 E0.06371
G1 X28.778 Y177.46 E0.04177
G1 X28.779 Y173.851 E0.25117
G1 X28.79 Y173.145 E0.04914
G1 X28.844 Y172.257 E0.06192
G1 X28.932 Y171.622 E0.04462
G1 X29.411 Y168.837 E0.19667
G1 X29.768 Y166.331 E0.17617
G1 X30.058 Y163.772 E0.17924
G1 X30.273 Y161.256 E0.17574
G1 X30.417 Y158.711 E0.17741
G1 X30.489 Y156.161 E0.17754
G1 X30.489 Y153.61 E0.17754
G1 X30.417 Y151.059 E0.17761
G1 X30.274 Y148.537 E0.17581
G1 X30.057 Y145.973 E0.17908
G1 X29.769 Y143.439 E0.17749
G1 X29.408 Y140.904 E0.17821
G1 X29.173 Y139.482 E0.10031
G1 X28.98 Y138.357 E0.07944
G1 X28.869 Y137.475 E0.06187
G1 X28.841 Y136.962 E0.03576
G1 X28.828 Y136.364 E0.04163
G1 X28.829 Y134.715 E0.11477
G1 X28.84 Y134.008 E0.04921
G1 X28.894 Y133.12 E0.06192
G1 X29.122 Y131.811 E0.09247
G1 X29.278 Y131.173 E0.04571
G1 X29.849 Y128.697 E0.17684
G1 X30.362 Y126.159 E0.18021
G1 X30.791 Y123.65 E0.17715
G1 X30.986 Y122.286 E0.0959
G1 X31.193 Y120.878 E0.09905
G1 X31.362 Y120.004 E0.06195
G1 X31.609 Y119.15 E0.06187
G1 X31.931 Y118.32 E0.06196
G1 X32.327 Y117.523 E0.06194
G1 X32.792 Y116.765 E0.06189
G1 X33.324 Y116.052 E0.06191
G1 X33.917 Y115.389 E0.06191
G1 X34.568 Y114.782 E0.06195
G1 X35.27 Y114.236 E0.0619
G1 X36.019 Y113.755 E0.06195
G1 X36.808 Y113.344 E0.06192
G1 X37.63 Y113.005 E0.06188
G0 F3600 X38.135 Y113.466
G1 F150 X38.968 Y113.24 E0.06007
G1 X39.817 Y113.092 E0.05998
G1 X40.86 Y113.019 E0.07277
G1 X41.715 Y113.008 E0.05951
G1 X64.761 Y113.008 E1.60393
G1 X65.613 Y113.02 E0.0593
G1 X66.474 Y113.073 E0.06004
G1 X66.908 Y113.131 E0.03047
G1 X67.776 Y113.267 E0.06115
G1 X70.394 Y113.64 E0.18404
G1 X72.928 Y113.929 E0.1775
G1 X75.484 Y114.147 E0.17854
G1 X78.061 Y114.294 E0.17964
G1 X80.626 Y114.368 E0.17859
G1 X81.988 Y114.377 E0.09479
G1 X94.228 Y114.377 E0.85187
G1 X96.862 Y114.34 E0.18334
G1 X98.214 Y114.282 E0.09418
G1 X99.34 Y114.249 E0.0784
G1 X99.603 Y114.245 E0.01831
G1 X100.749 Y114.245 E0.07976
G1 X101.418 Y114.255 E0.04657
G1 X102.279 Y114.308 E0.06004
G1 X103.131 Y114.44 E0.06
G1 X103.967 Y114.651 E0.06001
G1 X104.78 Y114.938 E0.06
G1 X105.563 Y115.299 E0.06001
G1 X106.309 Y115.732 E0.06003
G1 X107.012 Y116.231 E0.06
G1 X107.666 Y116.794 E0.06006
G1 X108.264 Y117.414 E0.05995
G1 X108.803 Y118.088 E0.06006
G1 X109.277 Y118.808 E0.05999
G1 X109.682 Y119.569 E0.06
G1 X110.015 Y120.365 E0.06005
G1 X110.273 Y121.188 E0.06003
G1 X110.453 Y122.031 E0.05999
G1 X110.575 Y123.279 E0.08727
G1 X110.589 Y123.892 E0.04267
G1 X110.588 Y167.147 E3.01041
G1 X110.578 Y167.874 E0.0506
G1 X110.526 Y168.735 E0.06003
G1 X110.395 Y169.587 E0.05999
G1 X110.185 Y170.423 E0.05999
G1 X109.899 Y171.237 E0.06005
G1 X109.539 Y172.02 E0.05998
G1 X109.107 Y172.767 E0.06006
G1 X108.609 Y173.47 E0.05996
G1 X108.047 Y174.125 E0.06007
G1 X107.427 Y174.724 E0.06
G1 X106.754 Y175.263 E0.06001
G1 X106.034 Y175.738 E0.06003
G1 X105.274 Y176.144 E0.05997
G1 X104.479 Y176.478 E0.06001
G1 X103.656 Y176.737 E0.06005
G1 X102.64 Y176.946 E0.07219
G1 X102.326 Y176.991 E0.02208
G1 X99.915 Y177.302 E0.16919
G1 X97.374 Y177.704 E0.17905
G1 X94.858 Y178.175 E0.17815
G1 X92.363 Y178.716 E0.17768
G1 X89.868 Y179.331 E0.17884
G1 X87.408 Y180.012 E0.17765
G1 X84.941 Y180.77 E0.17962
G1 X82.507 Y181.595 E0.17886
G1 X80.094 Y182.489 E0.17909
G1 X77.719 Y183.447 E0.17823
G1 X75.371 Y184.472 E0.17831
G1 X73.006 Y185.583 E0.18185
G1 X71.83 Y186.155 E0.09101
G1 X71.038 Y186.496 E0.06001
G1 X70.218 Y186.762 E0.06
G1 X69.773 Y186.872 E0.0319
G1 X68.924 Y187.019 E0.05997
G1 X68.019 Y187.089 E0.06317
G1 X67.438 Y187.102 E0.04045
G1 X39.265 Y187.101 E1.96075
G1 X38.567 Y187.092 E0.04858
G1 X37.706 Y187.041 E0.06003
G1 X36.854 Y186.911 E0.05998
G1 X36.017 Y186.702 E0.06004
G1 X35.204 Y186.416 E0.05998
G1 X34.42 Y186.056 E0.06004
G1 X33.673 Y185.626 E0.05999
G1 X32.969 Y185.127 E0.06006
G1 X32.314 Y184.566 E0.06002
G1 X31.714 Y183.947 E0.06
G1 X31.174 Y183.275 E0.06
G1 X30.699 Y182.555 E0.06003
G1 X30.292 Y181.795 E0.06
G1 X29.957 Y181 E0.06004
G1 X29.698 Y180.178 E0.05998
G1 X29.516 Y179.335 E0.06002
G1 X29.412 Y178.479 E0.06001
G1 X29.381 Y177.711 E0.05349
G1 X29.378 Y177.46 E0.01747
G1 X29.379 Y173.86 E0.25055
G1 X29.39 Y173.154 E0.04914
G1 X29.444 Y172.293 E0.06004
G1 X29.523 Y171.723 E0.04005
G1 X30.005 Y168.918 E0.19808
G1 X30.363 Y166.409 E0.17639
G1 X30.657 Y163.821 E0.18128
G1 X30.871 Y161.306 E0.17567
G1 X31.017 Y158.726 E0.17985
G1 X31.089 Y156.178 E0.1774
G1 X31.089 Y153.593 E0.17991
G1 X31.017 Y151.044 E0.17747
G1 X30.872 Y148.49 E0.17804
G1 X30.654 Y145.921 E0.17944
G1 X30.364 Y143.361 E0.17931
G1 X30 Y140.806 E0.17962
G1 X29.765 Y139.384 E0.10031
G1 X29.571 Y138.256 E0.07966
G1 X29.465 Y137.4 E0.06003
G1 X29.432 Y136.627 E0.05385
G1 X29.428 Y136.364 E0.01831
G1 X29.429 Y134.724 E0.11414
G1 X29.44 Y134.017 E0.04921
G1 X29.493 Y133.157 E0.05997
G1 X29.705 Y131.953 E0.08508
G1 X29.847 Y131.371 E0.04169
G1 X30.439 Y128.805 E0.18328
G1 X30.956 Y126.248 E0.18156
G1 X31.381 Y123.762 E0.17553
G1 X31.58 Y122.373 E0.09766
G1 X31.787 Y120.965 E0.09905
G1 X31.952 Y120.119 E0.05999
G1 X32.194 Y119.291 E0.06004
G1 X32.512 Y118.49 E0.05998
G1 X32.903 Y117.721 E0.06004
G1 X33.364 Y116.992 E0.06003
G1 X33.89 Y116.309 E0.06
G1 X34.477 Y115.677 E0.06003
G1 X35.12 Y115.103 E0.05999
G1 X35.814 Y114.59 E0.06006
G1 X36.552 Y114.144 E0.06001
G1 X37.328 Y113.769 E0.05998
G1 X38.135 Y113.466 E0.05999
G0 F3600 X37.843 Y114.206
G1 F150 X38.634 Y113.943 E0.05801
G1 X39.447 Y113.756 E0.05806
G1 X40.274 Y113.647 E0.05805
G1 X40.868 Y113.619 E0.04139
G1 X41.715 Y113.608 E0.05895
G1 X64.761 Y113.608 E1.60393
G1 X65.604 Y113.62 E0.05868
G1 X66.815 Y113.724 E0.08459
G1 X67.673 Y113.858 E0.06044
G1 X70.312 Y114.234 E0.18552
G1 X72.879 Y114.527 E0.17982
G1 X75.434 Y114.745 E0.17847
G1 X78.045 Y114.894 E0.18201
G1 X80.605 Y114.967 E0.17824
G1 X81.984 Y114.977 E0.09598
G1 X94.237 Y114.977 E0.85277
G1 X96.861 Y114.94 E0.18264
G1 X98.231 Y114.882 E0.09543
G1 X99.357 Y114.849 E0.0784
G1 X99.603 Y114.845 E0.01712
G1 X100.74 Y114.845 E0.07913
G1 X101.409 Y114.855 E0.04657
G1 X102.241 Y114.907 E0.05802
G1 X103.065 Y115.039 E0.05808
G1 X103.872 Y115.249 E0.05804
G1 X104.655 Y115.536 E0.05804
G1 X105.408 Y115.896 E0.05809
G1 X106.122 Y116.327 E0.05804
G1 X106.792 Y116.823 E0.05802
G1 X107.411 Y117.382 E0.05805
G1 X107.974 Y117.998 E0.05808
G1 X108.475 Y118.664 E0.058
G1 X108.91 Y119.376 E0.05807
G1 X109.275 Y120.126 E0.05805
G1 X109.567 Y120.907 E0.05803
G1 X109.782 Y121.713 E0.05806
G1 X109.919 Y122.536 E0.05807
G1 X109.975 Y123.297 E0.05311
G1 X109.989 Y123.892 E0.04142
G1 X109.988 Y167.139 E3.00985
G1 X109.978 Y167.866 E0.0506
G1 X109.927 Y168.698 E0.05801
G1 X109.796 Y169.522 E0.05807
G1 X109.587 Y170.329 E0.05802
G1 X109.301 Y171.113 E0.05808
G1 X108.942 Y171.865 E0.05799
G1 X108.512 Y172.58 E0.05807
G1 X108.016 Y173.251 E0.05807
G1 X107.458 Y173.871 E0.05805
G1 X106.843 Y174.434 E0.05803
G1 X106.177 Y174.936 E0.05804
G1 X105.466 Y175.372 E0.05805
G1 X104.717 Y175.738 E0.05802
G1 X103.936 Y176.03 E0.05803
G1 X103.13 Y176.247 E0.05809
G1 X102.552 Y176.352 E0.04089
G1 X102.249 Y176.396 E0.02131
G1 X99.815 Y176.71 E0.1708
G1 X97.28 Y177.111 E0.17862
G1 X94.759 Y177.583 E0.1785
G1 X92.196 Y178.139 E0.18253
G1 X89.743 Y178.744 E0.17584
G1 X87.218 Y179.442 E0.18232
G1 X84.751 Y180.2 E0.17962
G1 X82.317 Y181.026 E0.17889
G1 X79.872 Y181.932 E0.18147
G1 X77.495 Y182.889 E0.17834
G1 X75.129 Y183.922 E0.17968
G1 X72.789 Y185.023 E0.17998
G1 X71.568 Y185.616 E0.09447
G1 X70.801 Y185.944 E0.05806
G1 X69.643 Y186.286 E0.08403
G1 X68.821 Y186.428 E0.05806
G1 X68.002 Y186.49 E0.05716
G1 X67.438 Y186.502 E0.03926
G1 X39.273 Y186.501 E1.96019
G1 X38.575 Y186.492 E0.04858
G1 X37.742 Y186.442 E0.05808
G1 X36.919 Y186.311 E0.058
G1 X36.111 Y186.103 E0.05807
G1 X35.327 Y185.818 E0.05806
G1 X34.574 Y185.459 E0.05806
G1 X33.859 Y185.03 E0.05803
G1 X33.188 Y184.535 E0.05803
G1 X32.568 Y183.977 E0.05805
G1 X32.004 Y183.363 E0.05802
G1 X31.501 Y182.697 E0.05809
G1 X31.065 Y181.987 E0.05799
G1 X30.698 Y181.238 E0.05805
G1 X30.405 Y180.457 E0.05805
G1 X30.188 Y179.651 E0.05809
G1 X30.049 Y178.829 E0.05802
G1 X29.99 Y178.028 E0.0559
G1 X29.978 Y177.46 E0.03954
G1 X29.979 Y173.869 E0.24992
G1 X29.99 Y173.163 E0.04914
G1 X30.043 Y172.331 E0.05802
G1 X30.115 Y171.825 E0.03557
G1 X30.595 Y169.034 E0.1971
G1 X30.961 Y166.461 E0.18088
G1 X31.248 Y163.936 E0.17686
G1 X31.471 Y161.32 E0.18273
G1 X31.615 Y158.777 E0.17727
G1 X31.689 Y156.16 E0.18221
G1 X31.689 Y153.611 E0.1774
G1 X31.615 Y150.993 E0.18228
G1 X31.47 Y148.44 E0.17797
G1 X31.25 Y145.842 E0.18146
G1 X30.962 Y143.309 E0.17742
G1 X30.594 Y140.722 E0.18186
G1 X30.357 Y139.287 E0.10122
G1 X30.162 Y138.154 E0.08001
G1 X30.04 Y136.928 E0.08575
G1 X30.028 Y136.364 E0.03926
G1 X30.029 Y134.734 E0.11344
G1 X30.04 Y134.027 E0.04921
G1 X30.093 Y133.194 E0.05809
G1 X30.288 Y132.096 E0.07761
G1 X30.433 Y131.503 E0.04249
G1 X31.023 Y128.948 E0.1825
G1 X31.544 Y126.369 E0.18312
G1 X31.97 Y123.874 E0.17616
G1 X32.174 Y122.461 E0.09936
G1 X32.381 Y121.053 E0.09905
G1 X32.541 Y120.234 E0.05808
G1 X32.78 Y119.435 E0.05804
G1 X33.093 Y118.662 E0.05804
G1 X33.48 Y117.923 E0.05806
G1 X33.935 Y117.224 E0.05805
G1 X34.455 Y116.572 E0.05804
G1 X35.035 Y115.973 E0.05803
G1 X35.67 Y115.432 E0.05806
G1 X36.354 Y114.955 E0.05804
G1 X37.08 Y114.545 E0.05803
G1 X37.843 Y114.206 E0.05811
G0 F3600 X38.352 Y114.659
G1 F150 X39.125 Y114.435 E0.05601
G1 X39.916 Y114.289 E0.05598
G1 X40.877 Y114.219 E0.06706
G1 X41.715 Y114.208 E0.05833
G1 X64.761 Y114.208 E1.60393
G1 X65.595 Y114.22 E0.05805
G1 X66.723 Y114.317 E0.07879
G1 X67.571 Y114.45 E0.05974
G1 X70.234 Y114.829 E0.1872
G1 X72.798 Y115.121 E0.1796
G1 X75.416 Y115.345 E0.18287
G1 X77.994 Y115.492 E0.17971
G1 X80.63 Y115.568 E0.18353
G1 X81.98 Y115.577 E0.09396
G1 X94.245 Y115.577 E0.85361
G1 X96.895 Y115.54 E0.18445
G1 X98.249 Y115.481 E0.09432
G1 X99.375 Y115.448 E0.0784
G1 X99.604 Y115.445 E0.01594
G1 X100.731 Y115.445 E0.07844
G1 X101.4 Y115.455 E0.04657
G1 X102.203 Y115.507 E0.056
G1 X102.997 Y115.638 E0.05601
G1 X103.774 Y115.848 E0.05602
G1 X104.526 Y116.133 E0.05597
G1 X105.247 Y116.492 E0.05606
G1 X105.928 Y116.921 E0.05602
G1 X106.563 Y117.415 E0.05599
G1 X107.146 Y117.97 E0.05602
G1 X107.671 Y118.579 E0.05596
G1 X108.133 Y119.238 E0.05601
G1 X108.528 Y119.94 E0.05606
G1 X108.851 Y120.677 E0.056
G1 X109.099 Y121.442 E0.05597
G1 X109.27 Y122.229 E0.05605
G1 X109.375 Y123.314 E0.07587
G1 X109.389 Y123.892 E0.04024
G1 X109.388 Y167.13 E3.00923
G1 X109.378 Y167.857 E0.0506
G1 X109.327 Y168.661 E0.05607
G1 X109.197 Y169.455 E0.056
G1 X108.988 Y170.232 E0.056
G1 X108.703 Y170.985 E0.05603
G1 X108.345 Y171.705 E0.05596
G1 X107.918 Y172.387 E0.056
G1 X107.424 Y173.023 E0.05605
G1 X106.87 Y173.606 E0.05597
G1 X106.261 Y174.132 E0.05601
G1 X105.603 Y174.595 E0.056
G1 X104.902 Y174.991 E0.05603
G1 X104.165 Y175.314 E0.056
G1 X103.4 Y175.563 E0.05599
G1 X102.464 Y175.759 E0.06656
G1 X102.172 Y175.801 E0.02053
G1 X99.714 Y176.118 E0.17249
G1 X97.18 Y176.519 E0.17855
G1 X94.632 Y176.996 E0.18041
G1 X92.104 Y177.544 E0.18003
G1 X89.576 Y178.167 E0.1812
G1 X87.051 Y178.866 E0.18234
G1 X84.561 Y179.631 E0.18129
G1 X82.095 Y180.468 E0.18124
G1 X79.693 Y181.358 E0.17828
G1 X77.242 Y182.345 E0.18389
G1 X74.874 Y183.379 E0.17983
G1 X72.538 Y184.477 E0.17964
G1 X71.306 Y185.076 E0.09534
G1 X70.565 Y185.391 E0.05604
G1 X69.513 Y185.7 E0.07631
G1 X68.72 Y185.835 E0.05598
G1 X67.985 Y185.89 E0.0513
G1 X67.438 Y185.902 E0.03808
G1 X39.281 Y185.901 E1.95964
G1 X38.583 Y185.892 E0.04858
G1 X37.779 Y185.842 E0.05606
G1 X36.985 Y185.712 E0.056
G1 X36.208 Y185.504 E0.05598
G1 X35.455 Y185.22 E0.05601
G1 X34.734 Y184.863 E0.05599
G1 X34.052 Y184.436 E0.056
G1 X33.416 Y183.943 E0.056
G1 X32.831 Y183.39 E0.05603
G1 X32.305 Y182.781 E0.05601
G1 X31.841 Y182.123 E0.05604
G1 X31.446 Y181.422 E0.056
G1 X31.121 Y180.686 E0.056
G1 X30.871 Y179.921 E0.05601
G1 X30.699 Y179.135 E0.056
G1 X30.59 Y178.012 E0.07852
G1 X30.578 Y177.46 E0.03843
G1 X30.579 Y173.879 E0.24923
G1 X30.59 Y173.173 E0.04914
G1 X30.642 Y172.37 E0.056
G1 X30.706 Y171.927 E0.03115
G1 X31.189 Y169.117 E0.19844
G1 X31.556 Y166.544 E0.18089
G1 X31.846 Y163.984 E0.17931
G1 X32.069 Y161.37 E0.18259
G1 X32.215 Y158.793 E0.17964
G1 X32.289 Y156.177 E0.18214
G1 X32.289 Y153.594 E0.17977
G1 X32.215 Y150.977 E0.18221
G1 X32.068 Y148.39 E0.18034
G1 X31.848 Y145.793 E0.18139
G1 X31.557 Y143.226 E0.1798
G1 X31.187 Y140.631 E0.18243
G1 X30.949 Y139.189 E0.10172
G1 X30.754 Y138.053 E0.08022
G1 X30.64 Y136.911 E0.07987
G1 X30.628 Y136.364 E0.03808
G1 X30.629 Y134.743 E0.11282
G1 X30.64 Y134.036 E0.04921
G1 X30.692 Y133.233 E0.056
G1 X30.871 Y132.238 E0.07036
G1 X31.005 Y131.69 E0.03926
G1 X31.613 Y129.057 E0.18807
