;FLAVOR:RepRap
;TIME:2946
;Filament used: 1.04695m
;Layer height: 0.15
;MINX:31.797
;MINY:86.186
;MINZ:0.3
;MAXX:80.687
;MAXY:161.481
;MAXZ:6.75
;POSTPROCESSED
;Generated with Cura_SteamEngine 4.10.0
T0
M190 S60
M104 S220
M109 S220
M82 ;absolute extrusion mode
G28 ;Home
G1 Z15.0 F6000 ;Move the platform down 15mm
;Prime the extruder
G92 E0; set extruder zero
G1 F200 E3; 3mm slowly forward
G92 E0; Set extruder zero
M83 ;relative extrusion mode
G1 F1500 E-6.5
;LAYER_COUNT:44
;LAYER:0
M107
G0 F3600 X37.955 Y86.933 Z0.3
;TYPE:SKIRT
G1 F1500 E6.5
G1 F450 X38.793 Y86.633 E0.06195
G1 X39.654 Y86.41 E0.0619
G1 X40.532 Y86.265 E0.06193
G1 X41.429 Y86.199 E0.0626
G1 X42.027 Y86.186 E0.04163
G1 X70.08 Y86.186 E1.9524
G1 X70.92 Y86.197 E0.05847
G1 X71.808 Y86.25 E0.06191
G1 X72.688 Y86.382 E0.06193
G1 X73.552 Y86.593 E0.0619
G1 X74.394 Y86.88 E0.06191
G1 X75.207 Y87.242 E0.06194
G1 X75.984 Y87.675 E0.06191
G1 X76.719 Y88.177 E0.06195
G1 X77.406 Y88.742 E0.06191
G1 X78.039 Y89.367 E0.06191
G1 X78.614 Y90.046 E0.06192
G1 X79.126 Y90.774 E0.06194
G1 X79.57 Y91.545 E0.06192
G1 X79.943 Y92.353 E0.06194
G1 X80.242 Y93.191 E0.06192
G1 X80.465 Y94.052 E0.0619
G1 X80.609 Y94.93 E0.06192
G1 X80.674 Y95.818 E0.06197
G1 X80.687 Y96.416 E0.04163
G1 X80.686 Y100.002 E0.24957
G1 X80.676 Y100.722 E0.05011
G1 X80.624 Y101.611 E0.06198
G1 X80.512 Y102.382 E0.05422
G1 X80.055 Y105.048 E0.18825
G1 X79.696 Y107.565 E0.17695
G1 X79.409 Y110.087 E0.17666
G1 X79.193 Y112.62 E0.17693
G1 X79.049 Y115.164 E0.17734
G1 X78.976 Y117.72 E0.17796
G1 X78.976 Y120.272 E0.17761
G1 X79.047 Y122.814 E0.17698
G1 X79.19 Y125.336 E0.17581
G1 X79.408 Y127.909 E0.17971
G1 X79.697 Y130.451 E0.17805
G1 X80.052 Y132.955 E0.17601
G1 X80.292 Y134.406 E0.10236
G1 X80.482 Y135.508 E0.07783
G1 X80.594 Y136.39 E0.06188
G1 X80.622 Y136.894 E0.03513
G1 X80.637 Y137.524 E0.04386
G1 X80.636 Y139.16 E0.11386
G1 X80.626 Y139.861 E0.04879
G1 X80.52 Y141.171 E0.09147
G1 X80.338 Y142.107 E0.06636
G1 X80.176 Y142.767 E0.0473
G1 X79.606 Y145.244 E0.1769
G1 X79.107 Y147.728 E0.17633
G1 X78.673 Y150.256 E0.17851
G1 X78.5 Y151.522 E0.08893
G1 X78.437 Y151.867 E0.02441
G1 X78.276 Y152.983 E0.07847
G1 X78.109 Y153.857 E0.06193
G1 X77.865 Y154.712 E0.06188
G1 X77.545 Y155.543 E0.06197
G1 X77.152 Y156.341 E0.06191
G1 X76.688 Y157.1 E0.06191
G1 X76.159 Y157.815 E0.0619
G1 X75.567 Y158.48 E0.06196
G1 X74.918 Y159.088 E0.06189
G1 X74.217 Y159.636 E0.06193
G1 X73.47 Y160.119 E0.06191
G1 X72.682 Y160.533 E0.06195
G1 X71.86 Y160.874 E0.06194
G1 X71.011 Y161.14 E0.06192
G1 X70.142 Y161.329 E0.06189
G1 X69.259 Y161.439 E0.06193
G1 X68.626 Y161.469 E0.0441
G1 X67.744 Y161.481 E0.06139
G1 X44.562 Y161.48 E1.61339
G1 X43.864 Y161.47 E0.04858
G1 X42.976 Y161.417 E0.06191
G1 X42.096 Y161.285 E0.06193
G1 X41.232 Y161.074 E0.0619
G1 X40.39 Y160.787 E0.06191
G1 X39.577 Y160.425 E0.06194
G1 X38.8 Y159.992 E0.06191
G1 X38.065 Y159.49 E0.06195
G1 X37.378 Y158.925 E0.06191
G1 X36.745 Y158.3 E0.06191
G1 X36.17 Y157.621 E0.06192
G1 X35.658 Y156.893 E0.06194
G1 X35.214 Y156.122 E0.06192
G1 X34.841 Y155.314 E0.06194
G1 X34.542 Y154.476 E0.06192
G1 X34.319 Y153.615 E0.0619
G1 X34.175 Y152.737 E0.06192
G1 X34.11 Y151.843 E0.06238
G1 X34.087 Y150.991 E0.05932
G1 X33.802 Y131.76 E1.33856
G1 X33.797 Y131.088 E0.04677
G1 X33.797 Y120.509 E0.73626
G1 X33.76 Y117.889 E0.18236
G1 X33.65 Y115.309 E0.17972
G1 X33.473 Y112.818 E0.1738
G1 X33.219 Y110.258 E0.17904
G1 X32.897 Y107.742 E0.17653
G1 X32.501 Y105.218 E0.17781
G1 X31.974 Y102.394 E0.19993
G1 X31.85 Y101.513 E0.06192
G1 X31.81 Y100.859 E0.0456
G1 X31.797 Y100.261 E0.04163
G1 X31.798 Y96.626 E0.25298
G1 X31.807 Y95.961 E0.04629
G1 X31.859 Y95.073 E0.06191
G1 X31.99 Y94.193 E0.06192
G1 X32.2 Y93.328 E0.06195
G1 X32.487 Y92.486 E0.06191
G1 X32.848 Y91.673 E0.06191
G1 X33.281 Y90.896 E0.06191
G1 X33.782 Y90.16 E0.06196
G1 X34.347 Y89.473 E0.06191
G1 X34.971 Y88.839 E0.06191
G1 X35.65 Y88.263 E0.06197
G1 X36.377 Y87.751 E0.06189
G1 X37.148 Y87.307 E0.06192
G1 X37.955 Y86.933 E0.0619
G0 F3600 X38.505 Y87.363
G1 F450 X39.327 Y87.104 E0.05998
G1 X40.17 Y86.923 E0.06001
G1 X41.445 Y86.799 E0.08915
G1 X42.027 Y86.786 E0.04052
G1 X70.08 Y86.786 E1.9524
G1 X70.911 Y86.797 E0.05784
G1 X71.772 Y86.849 E0.06003
G1 X72.624 Y86.981 E0.06
G1 X73.46 Y87.191 E0.05999
G1 X74.274 Y87.478 E0.06007
G1 X75.057 Y87.839 E0.06001
G1 X75.803 Y88.271 E0.06
G1 X76.507 Y88.77 E0.06006
G1 X77.16 Y89.332 E0.05996
G1 X77.76 Y89.952 E0.06005
G1 X78.299 Y90.625 E0.06001
G1 X78.773 Y91.345 E0.05999
G1 X79.179 Y92.106 E0.06003
G1 X79.512 Y92.901 E0.05999
G1 X79.77 Y93.724 E0.06003
G1 X79.951 Y94.567 E0.06001
G1 X80.074 Y95.835 E0.08866
G1 X80.087 Y96.416 E0.04045
G1 X80.086 Y99.994 E0.24902
G1 X80.076 Y100.714 E0.05011
G1 X80.024 Y101.575 E0.06003
G1 X79.921 Y102.281 E0.04966
G1 X79.465 Y104.932 E0.18721
G1 X79.101 Y107.488 E0.17968
G1 X78.811 Y110.038 E0.17862
G1 X78.595 Y112.57 E0.17686
G1 X78.449 Y115.148 E0.17971
G1 X78.376 Y117.703 E0.17789
G1 X78.376 Y120.288 E0.17991
G1 X78.447 Y122.831 E0.17705
G1 X78.592 Y125.386 E0.17811
G1 X78.81 Y127.954 E0.17937
G1 X79.102 Y130.533 E0.18064
G1 X79.46 Y133.052 E0.17708
G1 X79.697 Y134.485 E0.10109
G1 X79.891 Y135.61 E0.07945
G1 X79.998 Y136.465 E0.05997
G1 X80.033 Y137.243 E0.0542
G1 X80.037 Y137.524 E0.01956
G1 X80.036 Y139.152 E0.1133
G1 X80.026 Y139.853 E0.04879
G1 X79.927 Y141.083 E0.08588
G1 X79.755 Y141.964 E0.06247
G1 X79.61 Y142.554 E0.04228
G1 X79.017 Y145.129 E0.1839
G1 X78.512 Y147.646 E0.17867
G1 X78.085 Y150.134 E0.17569
G1 X77.906 Y151.441 E0.09181
G1 X77.842 Y151.784 E0.02428
G1 X77.682 Y152.897 E0.07826
G1 X77.519 Y153.744 E0.06003
G1 X77.279 Y154.572 E0.06
G1 X76.963 Y155.375 E0.06006
G1 X76.574 Y156.144 E0.05998
G1 X76.116 Y156.875 E0.06004
G1 X75.592 Y157.559 E0.05997
G1 X75.006 Y158.193 E0.06009
G1 X74.365 Y158.769 E0.05998
G1 X73.673 Y159.283 E0.05999
G1 X72.936 Y159.731 E0.06003
G1 X72.161 Y160.109 E0.06001
G1 X71.354 Y160.414 E0.06004
G1 X70.523 Y160.642 E0.05997
G1 X69.673 Y160.793 E0.06008
G1 X68.617 Y160.869 E0.07368
G1 X67.744 Y160.881 E0.06076
G1 X44.571 Y160.88 E1.61277
G1 X43.873 Y160.87 E0.04858
G1 X43.012 Y160.818 E0.06003
G1 X42.16 Y160.686 E0.06
G1 X41.324 Y160.476 E0.05999
G1 X40.51 Y160.189 E0.06007
G1 X39.727 Y159.828 E0.06001
G1 X38.981 Y159.396 E0.06
G1 X38.277 Y158.897 E0.06006
G1 X37.624 Y158.335 E0.05996
G1 X37.024 Y157.715 E0.06005
G1 X36.485 Y157.042 E0.06001
G1 X36.011 Y156.322 E0.05999
G1 X35.605 Y155.561 E0.06003
G1 X35.272 Y154.766 E0.05999
G1 X35.014 Y153.943 E0.06003
G1 X34.833 Y153.1 E0.06001
G1 X34.71 Y151.827 E0.08901
G1 X34.687 Y150.982 E0.05883
G1 X34.402 Y131.755 E1.33829
G1 X34.397 Y131.083 E0.04677
G1 X34.397 Y120.501 E0.73647
G1 X34.36 Y117.89 E0.18174
G1 X34.251 Y115.31 E0.17972
G1 X34.069 Y112.752 E0.17848
G1 X33.816 Y110.193 E0.17897
G1 X33.489 Y107.643 E0.17893
G1 X33.093 Y105.119 E0.17781
G1 X32.564 Y102.284 E0.20071
G1 X32.445 Y101.43 E0.06001
G1 X32.41 Y100.842 E0.041
G1 X32.397 Y100.261 E0.04045
G1 X32.398 Y96.634 E0.25243
G1 X32.407 Y95.969 E0.04629
G1 X32.458 Y95.108 E0.06003
G1 X32.59 Y94.256 E0.06
G1 X32.799 Y93.42 E0.05997
G1 X33.085 Y92.606 E0.06005
G1 X33.445 Y91.823 E0.05998
G1 X33.877 Y91.076 E0.06006
G1 X34.375 Y90.372 E0.06002
G1 X34.937 Y89.718 E0.06001
G1 X35.557 Y89.118 E0.06005
G1 X36.229 Y88.579 E0.05995
G1 X36.949 Y88.104 E0.06003
G1 X37.71 Y87.697 E0.06006
G1 X38.505 Y87.363 E0.06001
G0 F3600 X38.267 Y88.104
G1 F450 X39.048 Y87.811 E0.05805
G1 X39.853 Y87.595 E0.05801
G1 X40.675 Y87.456 E0.05802
G1 X41.462 Y87.398 E0.05492
G1 X42.027 Y87.386 E0.03933
G1 X70.08 Y87.386 E1.9524
G1 X70.903 Y87.397 E0.05728
G1 X71.735 Y87.449 E0.05802
G1 X72.559 Y87.58 E0.05807
G1 X73.366 Y87.79 E0.05804
G1 X74.149 Y88.076 E0.05802
G1 X74.902 Y88.435 E0.05806
G1 X75.616 Y88.866 E0.05804
G1 X76.287 Y89.362 E0.05807
G1 X76.906 Y89.92 E0.058
G1 X77.469 Y90.536 E0.05808
G1 X77.971 Y91.202 E0.05804
G1 X78.406 Y91.913 E0.05801
G1 X78.772 Y92.663 E0.05808
G1 X79.064 Y93.444 E0.05803
G1 X79.28 Y94.25 E0.05807
G1 X79.418 Y95.072 E0.05801
G1 X79.475 Y95.851 E0.05436
G1 X79.487 Y96.416 E0.03933
G1 X79.486 Y99.986 E0.24846
G1 X79.476 Y100.706 E0.05011
G1 X79.425 Y101.538 E0.05801
G1 X79.331 Y102.172 E0.04461
G1 X78.871 Y104.85 E0.18911
G1 X78.507 Y107.405 E0.17962
G1 X78.217 Y109.954 E0.17855
G1 X77.995 Y112.556 E0.18175
G1 X77.849 Y115.132 E0.17957
G1 X77.776 Y117.686 E0.17782
G1 X77.776 Y120.269 E0.17977
G1 X77.849 Y122.882 E0.18193
G1 X77.994 Y125.436 E0.17804
G1 X78.211 Y128.002 E0.17922
G1 X78.508 Y130.615 E0.18303
G1 X78.866 Y133.136 E0.17721
G1 X79.097 Y134.537 E0.09882
G1 X79.3 Y135.712 E0.08299
G1 X79.423 Y136.93 E0.0852
G1 X79.437 Y137.524 E0.04135
G1 X79.436 Y139.143 E0.11268
G1 X79.426 Y139.844 E0.04879
G1 X79.333 Y140.995 E0.08037
G1 X79.172 Y141.821 E0.05857
G1 X79.028 Y142.406 E0.04193
G1 X78.434 Y144.988 E0.18439
G1 X77.922 Y147.537 E0.18095
G1 X77.488 Y150.068 E0.17872
G1 X77.311 Y151.359 E0.09069
G1 X77.25 Y151.687 E0.02322
G1 X77.088 Y152.812 E0.0791
G1 X76.929 Y153.63 E0.058
G1 X76.693 Y154.43 E0.05805
G1 X76.382 Y155.204 E0.05805
G1 X75.997 Y155.944 E0.05805
G1 X75.544 Y156.644 E0.05803
G1 X75.026 Y157.298 E0.05806
G1 X74.447 Y157.898 E0.05803
G1 X73.814 Y158.441 E0.05804
G1 X73.131 Y158.92 E0.05806
G1 X72.406 Y159.332 E0.05804
G1 X71.645 Y159.673 E0.05804
G1 X70.854 Y159.939 E0.05808
G1 X70.042 Y160.128 E0.05802
G1 X69.215 Y160.239 E0.05807
G1 X68.608 Y160.269 E0.0423
G1 X67.744 Y160.281 E0.06014
G1 X44.579 Y160.28 E1.61221
G1 X43.881 Y160.27 E0.04858
G1 X43.049 Y160.218 E0.05802
G1 X42.225 Y160.087 E0.05807
G1 X41.418 Y159.877 E0.05804
G1 X40.635 Y159.591 E0.05802
G1 X39.882 Y159.232 E0.05806
G1 X39.168 Y158.801 E0.05804
G1 X38.497 Y158.305 E0.05807
G1 X37.878 Y157.747 E0.058
G1 X37.315 Y157.131 E0.05808
G1 X36.813 Y156.465 E0.05804
G1 X36.378 Y155.754 E0.05801
G1 X36.012 Y155.004 E0.05808
G1 X35.72 Y154.223 E0.05803
G1 X35.504 Y153.417 E0.05807
G1 X35.366 Y152.595 E0.05801
G1 X35.309 Y151.81 E0.05478
G1 X35.287 Y150.973 E0.05827
G1 X35.002 Y131.751 E1.33794
G1 X34.997 Y131.079 E0.04677
G1 X34.997 Y120.492 E0.73682
G1 X34.96 Y117.857 E0.18341
G1 X34.85 Y115.275 E0.17986
G1 X34.669 Y112.724 E0.17799
G1 X34.412 Y110.127 E0.18163
G1 X34.081 Y107.544 E0.18124
G1 X33.69 Y105.055 E0.17535
G1 X33.153 Y102.174 E0.20396
G1 X33.04 Y101.348 E0.05802
G1 X33.009 Y100.825 E0.03646
G1 X32.997 Y100.261 E0.03926
G1 X32.998 Y96.642 E0.25187
G1 X33.007 Y95.977 E0.04629
G1 X33.058 Y95.145 E0.05801
G1 X33.189 Y94.321 E0.05807
G1 X33.398 Y93.514 E0.05802
G1 X33.683 Y92.73 E0.05806
G1 X34.042 Y91.977 E0.05806
G1 X34.472 Y91.262 E0.05807
G1 X34.968 Y90.592 E0.05802
G1 X35.526 Y89.972 E0.05805
G1 X36.14 Y89.408 E0.05802
G1 X36.806 Y88.906 E0.05804
G1 X37.517 Y88.47 E0.05805
G1 X38.267 Y88.104 E0.05808
G0 F3600 X38.818 Y88.527
G1 F450 X39.583 Y88.278 E0.05599
G1 X40.369 Y88.106 E0.056
G1 X41.479 Y87.998 E0.07762
G1 X42.027 Y87.986 E0.03815
G1 X70.08 Y87.986 E1.9524
G1 X70.894 Y87.997 E0.05666
G1 X71.697 Y88.048 E0.056
G1 X72.491 Y88.179 E0.05601
G1 X73.268 Y88.388 E0.056
G1 X74.021 Y88.673 E0.05603
G1 X74.741 Y89.032 E0.05599
G1 X75.423 Y89.46 E0.05604
G1 X76.058 Y89.954 E0.05599
G1 X76.642 Y90.508 E0.05602
G1 X77.167 Y91.117 E0.05596
G1 X77.63 Y91.776 E0.05605
G1 X78.025 Y92.477 E0.056
G1 X78.348 Y93.214 E0.056
G1 X78.597 Y93.979 E0.05599
G1 X78.768 Y94.766 E0.05605
G1 X78.875 Y95.868 E0.07706
G1 X78.887 Y96.416 E0.03815
G1 X78.886 Y99.977 E0.24783
G1 X78.876 Y100.697 E0.05011
G1 X78.825 Y101.501 E0.05607
G1 X78.738 Y102.078 E0.04061
G1 X78.276 Y104.774 E0.19037
G1 X77.913 Y107.322 E0.17912
G1 X77.619 Y109.905 E0.18093
G1 X77.397 Y112.506 E0.18168
G1 X77.251 Y115.081 E0.1795
G1 X77.176 Y117.704 E0.18263
G1 X77.176 Y120.286 E0.1797
G1 X77.249 Y122.897 E0.18179
G1 X77.395 Y125.482 E0.18019
G1 X77.616 Y128.089 E0.18209
G1 X77.908 Y130.658 E0.17995
G1 X78.274 Y133.234 E0.18108
G1 X78.506 Y134.639 E0.09911
G1 X78.709 Y135.814 E0.08299
G1 X78.823 Y136.948 E0.07932
G1 X78.837 Y137.524 E0.0401
G1 X78.836 Y139.135 E0.11212
G1 X78.826 Y139.836 E0.04879
G1 X78.74 Y140.907 E0.07478
G1 X78.589 Y141.678 E0.05468
G1 X78.443 Y142.274 E0.04271
G1 X77.844 Y144.873 E0.18562
G1 X77.339 Y147.388 E0.17853
G1 X76.896 Y149.975 E0.18267
G1 X76.717 Y151.278 E0.09154
G1 X76.656 Y151.6 E0.02281
G1 X76.494 Y152.726 E0.07917
G1 X76.34 Y153.516 E0.05602
G1 X76.108 Y154.286 E0.05597
G1 X75.801 Y155.03 E0.05602
G1 X75.421 Y155.74 E0.05605
G1 X74.973 Y156.408 E0.05598
G1 X74.461 Y157.029 E0.05602
G1 X73.89 Y157.596 E0.056
G1 X73.265 Y158.103 E0.05601
G1 X72.593 Y158.546 E0.05602
G1 X71.881 Y158.92 E0.05597
G1 X71.135 Y159.222 E0.05601
G1 X70.362 Y159.448 E0.05605
G1 X69.571 Y159.596 E0.05601
G1 X68.599 Y159.669 E0.06784
G1 X67.744 Y159.681 E0.05951
G1 X44.588 Y159.68 E1.61158
G1 X43.89 Y159.67 E0.04858
G1 X43.087 Y159.619 E0.056
G1 X42.293 Y159.488 E0.05601
G1 X41.516 Y159.279 E0.056
G1 X40.763 Y158.994 E0.05603
G1 X40.043 Y158.635 E0.05599
G1 X39.361 Y158.207 E0.05604
G1 X38.726 Y157.713 E0.05599
G1 X38.142 Y157.159 E0.05602
G1 X37.617 Y156.55 E0.05596
G1 X37.154 Y155.891 E0.05605
G1 X36.759 Y155.19 E0.056
G1 X36.436 Y154.453 E0.056
G1 X36.187 Y153.688 E0.05599
G1 X36.016 Y152.901 E0.05605
G1 X35.909 Y151.794 E0.0774
G1 X35.887 Y150.964 E0.05779
G1 X35.602 Y131.746 E1.33766
G1 X35.597 Y131.074 E0.04677
G1 X35.597 Y120.484 E0.73703
G1 X35.56 Y117.858 E0.18278
G1 X35.449 Y115.243 E0.18216
G1 X35.266 Y112.657 E0.18043
G1 X35.008 Y110.062 E0.18149
G1 X34.678 Y107.479 E0.18123
G1 X34.276 Y104.922 E0.18014
G1 X33.743 Y102.064 E0.20234
G1 X33.635 Y101.266 E0.05604
G1 X33.6 Y100.49 E0.05406
G1 X33.597 Y100.261 E0.01594
G1 X33.598 Y96.65 E0.25131
G1 X33.607 Y95.985 E0.04629
G1 X33.658 Y95.182 E0.056
G1 X33.788 Y94.388 E0.056
G1 X33.996 Y93.611 E0.05598
G1 X34.281 Y92.858 E0.05603
G1 X34.639 Y92.137 E0.05602
G1 X35.066 Y91.456 E0.05594
G1 X35.559 Y90.82 E0.056
G1 X36.113 Y90.236 E0.05602
G1 X36.722 Y89.71 E0.05601
G1 X37.38 Y89.247 E0.056
G1 X38.081 Y88.851 E0.05603
G1 X38.818 Y88.527 E0.05603
G0 F3600 X38.641 Y89.25
G1 F450 X39.363 Y88.97 E0.0539
G1 X40.11 Y88.767 E0.05387
G1 X40.874 Y88.641 E0.05389
G1 X41.496 Y88.598 E0.04339
G1 X42.027 Y88.586 E0.03697
G1 X70.08 Y88.586 E1.9524
G1 X70.885 Y88.597 E0.05603
G1 X71.658 Y88.648 E0.05392
G1 X72.421 Y88.778 E0.05387
G1 X73.167 Y88.987 E0.05392
G1 X73.887 Y89.271 E0.05387
G1 X74.575 Y89.628 E0.05395
G1 X75.221 Y90.054 E0.05386
G1 X75.821 Y90.544 E0.05391
G1 X76.366 Y91.094 E0.05389
G1 X76.852 Y91.697 E0.0539
G1 X77.273 Y92.346 E0.05384
G1 X77.625 Y93.036 E0.05391
G1 X77.904 Y93.758 E0.05387
G1 X78.107 Y94.506 E0.05394
G1 X78.232 Y95.27 E0.05388
G1 X78.275 Y95.885 E0.04291
G1 X78.287 Y96.416 E0.03697
G1 X78.286 Y99.969 E0.24728
G1 X78.276 Y100.689 E0.05011
G1 X78.226 Y101.462 E0.05391
G1 X78.137 Y102.028 E0.03988
G1 X77.687 Y104.653 E0.18536
G1 X77.318 Y107.244 E0.18214
G1 X77.02 Y109.857 E0.18304
G1 X76.799 Y112.456 E0.18153
G1 X76.651 Y115.065 E0.18187
G1 X76.576 Y117.687 E0.18256
G1 X76.576 Y120.303 E0.18207
G1 X76.649 Y122.913 E0.18172
G1 X76.797 Y125.532 E0.18256
G1 X77.018 Y128.133 E0.18167
G1 X77.314 Y130.745 E0.18295
G1 X77.681 Y133.325 E0.18137
G1 X77.915 Y134.741 E0.09989
G1 X78.118 Y135.916 E0.08299
G1 X78.224 Y136.967 E0.07352
G1 X78.237 Y137.524 E0.03878
G1 X78.236 Y139.126 E0.11149
G1 X78.226 Y139.827 E0.04879
G1 X78.146 Y140.819 E0.06926
G1 X78.007 Y141.535 E0.05076
G1 X77.858 Y142.141 E0.04343
G1 X77.254 Y144.765 E0.1874
G1 X76.744 Y147.306 E0.18037
G1 X76.307 Y149.851 E0.17972
G1 X76.123 Y151.196 E0.09448
G1 X76.062 Y151.515 E0.0226
G1 X75.9 Y152.64 E0.0791
G1 X75.75 Y153.4 E0.05391
G1 X75.523 Y154.14 E0.05387
G1 X75.22 Y154.853 E0.05392
G1 X74.846 Y155.531 E0.05389
G1 X74.404 Y156.166 E0.05385
G1 X73.898 Y156.753 E0.05394
G1 X73.335 Y157.284 E0.05386
G1 X72.72 Y157.755 E0.05391
G1 X72.059 Y158.159 E0.05392
G1 X71.361 Y158.493 E0.05385
G1 X70.632 Y158.754 E0.05389
G1 X69.879 Y158.938 E0.05395
G1 X69.112 Y159.043 E0.05388
G1 X68.59 Y159.069 E0.03637
G1 X67.744 Y159.081 E0.05888
G1 X44.597 Y159.08 E1.61096
G1 X43.899 Y159.07 E0.04858
G1 X43.126 Y159.019 E0.05392
